packages/paste-website/src/assets/illustrations/home_getstarted_2.svg

<svg height="64" viewBox="0 0 63 64" width="63" xmlns="http://www.w3.org/2000/svg"><g fill="none" fill-rule="evenodd"><path d="m60.7593651.51809524h-4.0634921c-.8415767 0-1.5238095.68223276-1.5238095 1.52380952s.6822328 1.52380953 1.5238095 1.52380953h2.5498413v2.52952381c0 .84157676.6822327 1.52380952 1.5238095 1.52380952s1.5238095-.68223276 1.5238095-1.52380952v-4.06349207c0-.4049903-.1622229-.79310465-.4504971-1.07756058-.2882741-.28445592-.6785173-.44152632-1.0834711-.43609021z" fill="#06033a"/><path d="m55.791746 46.7301587-3.8095238-6.5930158c-.2738982-.470246-.7764396-.7601737-1.3206349-.7619048h-7.6190476c-.5411216.0032662-1.0399203.2932655-1.3104762.7619048l-3.8095238 6.5930158c-.2746498.4671742-.2746498 1.0464767 0 1.5136508l3.8095238 6.6031746c.2705559.4686393.7693546.7586386 1.3104762.7619048h7.6190476c.5441953-.0017311 1.0467367-.2916588 1.3206349-.7619048l3.8095238-6.6031746c.2642548-.4699498.2642548-1.0437009 0-1.5136508zm-6.0139682 5.7904762h-5.8615873l-2.9257143-5.0793651 2.9257143-5.079365h5.8615873l2.935873 5.079365zm-2.9257143-26.2298412c4.8699242 0 8.8177778-3.9478536 8.8177778-8.8177778s-3.9478536-8.8177778-8.8177778-8.8177778-8.8177778 3.9478536-8.8177778 8.8177778 3.9478536 8.8177778 8.8177778 8.8177778zm0-14.608263c2.3429491-.0041015 4.4574826 1.4040937 5.35694 3.5675177.8994574 2.1634241.4065595 4.6556755-1.2487031 6.3138472-1.6552625 1.6581716-4.1466446 2.1554449-6.3116447 1.2597877s-3.5769097-3.0077147-3.5769097-5.3506674c.0055702-3.1917194 2.5886128-5.7793017 5.7803175-5.7904852z" fill="#f22f46"/><path d="m60.7593651 12.1904762c-.8376068.0055842-1.5136508.6861841-1.5136508 1.5238095v7.5784127c0 .8415768.6822327 1.5238095 1.5238095 1.5238095s1.5238095-.6822327 1.5238095-1.5238095v-7.6088889c-.0053525-.4014567-.1699824-.7843403-.4576652-1.0644023-.2876828-.2800621-.6748473-.4343558-1.076303-.428931zm0 15.1466667c-.8359663 0-1.5136508.6776845-1.5136508 1.5136508v2.5498412h-2.5498413c-.8415767 0-1.5238095.6822328-1.5238095 1.5238095 0 .8415768.6822328 1.5238096 1.5238095 1.5238096h2.5498413v2.5295238c0 .8415767.6822327 1.5238095 1.5238095 1.5238095s1.523846-.6822328 1.523846-1.5238095v-8.1269841c.0027894-.4058467-.1585829-.7955973-.4474736-1.0806616-.2888908-.2850643-.6807582-.4412259-1.0865311-.4329892zm-18.0926984 4.063492c-.8415768 0-1.5238096.6822328-1.5238096 1.5238095 0 .8415768.6822328 1.5238096 1.5238096 1.5238096h7.0095238c.8415767 0 1.5238095-.6822328 1.5238095-1.5238096 0-.8415767-.6822328-1.5238095-1.5238095-1.5238095zm18.0926984 11.032381c-.8376068.0055841-1.5136508.6861841-1.5136508 1.5238095v6.9688889c0 .8415767.6822327 1.5238095 1.5238095 1.5238095s1.5238095-.6822328 1.5238095-1.5238095v-6.9688889c.0027667-.4067487-.1582894-.797494-.4468647-1.0841582-.2885754-.2866643-.6803822-.4451206-1.0871035-.4396513zm0 13.9580952c-.8359663 0-1.5136508.6776846-1.5136508 1.5136508v2.5498413h-2.5498413c-.8415767 0-1.5238095.6822327-1.5238095 1.5238095s.6822328 1.5238095 1.5238095 1.5238095h4.0634921c.4049903 0 .7931046-.1622229 1.0775606-.4504971.2844559-.2882741.4415263-.6785173.4360902-1.0834711v-4.0634921c0-.8359662-.6776846-1.5136508-1.5136508-1.5136508zm-11.0831746 4.0634921h-7.0095238c-.8415768 0-1.5238096.6822327-1.5238096 1.5238095s.6822328 1.5238095 1.5238096 1.5238095h7.0095238c.8415767 0 1.5238095-.6822327 1.5238095-1.5238095s-.6822328-1.5238095-1.5238095-1.5238095z" fill="#06033a"/><path d="m25.4780952 19.3726984-5.1504762-8.1269841c-.7451107-1.1766511-2.0409204-1.88972986-3.4336507-1.88952387-1.3927304-.00020599-2.6885401.71287277-3.4336508 1.88952387l-5.16063496 8.1269841c-.7926503 1.2517238-.84120459 2.8356523-.12671209 4.1335765.7144925 1.2979243 2.07877355 2.104103 3.56036285 2.1038839h10.3111111c1.4818019-.0033636 2.8442927-.8130724 3.5555556-2.1130159.7303415-1.2903072.6833695-2.879525-.1219048-4.1244445zm-2.5295238 2.671746c-.1804177.3298111-.5282239.5330237-.904127.5283362h-10.3111111c-.375903.0046875-.7237092-.1985251-.904127-.5283362-.1814682-.3143122-.1814682-.7015608 0-1.015873l5.1504762-8.1269841c.1841604-.3036031.5134801-.4890128.8685715-.4890128s.6844111.1854097.8685714.4890128l5.1606349 8.1269841c.2039735.3014359.2311002.6889598.0711111 1.015873zm.416508 17.4628572h-12.9015873c-.4014452 0-.78644819.1594735-1.07031278.443338-.28386459.2838646-.44333805.6688676-.44333805 1.0703128v12.8203174c0 .8359663.67768454 1.5136508 1.51365083 1.5136508h12.9015873c.8160655-.0274 1.463317-.6971255 1.4628574-1.5136508v-12.8203174c.0004596-.8165253-.6467919-1.4862508-1.4628574-1.5136508zm-1.5644445 12.8406349h-9.8133333v-9.8133333h9.8133333z" fill="#f22f46"/><path d="m2.2247619 7.60888889c.83596625 0 1.5136508-.67768454 1.5136508-1.51365079v-2.54984127h2.54984127c.84157676 0 1.52380952-.68223277 1.52380952-1.52380953s-.68223276-1.52380953-1.52380952-1.52380953h-4.06349207c-.4049903 0-.79310465.16222297-1.07756058.4504971-.28445592.28827412-.44152632.67851735-.43609021 1.08347116v4.06349207c0 .40144515.15947347.78644815.44333805 1.07031274.28386459.28386458.66886759.44333805 1.07031274.44333805zm11.1339683-4.06349206h7.1111111c.8415767 0 1.5238095-.68223277 1.5238095-1.52380953s-.6822328-1.52380952-1.5238095-1.52380952h-7.1111111c-.8415768 0-1.5238096.68223276-1.5238096 1.52380952s.6822328 1.52380953 1.5238096 1.52380953zm-11.1339683 19.23047617c.83596625 0 1.5136508-.6776845 1.5136508-1.5136508v-7.5784127c0-.8415767-.68223276-1.5238095-1.52380953-1.5238095-.84157676 0-1.52380952.6822328-1.52380952 1.5238095v7.5784127c-.00282586.4058467.15854648.7955972.44743718 1.0806616.28889071.2850643.68075814.4412259 1.08653107.4329892zm33.391746-22.25777776h-8.1269841c-.8415768 0-1.5238095.68223276-1.5238095 1.52380952s.6822327 1.52380953 1.5238095 1.52380953h2.5498413v2.52952381c0 .84157676.6822327 1.52380952 1.5238095 1.52380952s1.5238095-.68223276 1.5238095-1.52380952v-2.54984127h2.5396826c.8415767 0 1.5238095-.68223277 1.5238095-1.52380953s-.6822328-1.52380952-1.5238095-1.52380952zm7.0501588 3.02730159h7.0095238c.8415767 0 1.5238095-.68223277 1.5238095-1.52380953s-.6822328-1.52380952-1.5238095-1.52380952h-7.0095238c-.8415768 0-1.5238096.68223276-1.5238096 1.52380952s.6822328 1.52380953 1.5238096 1.52380953zm-36.37841273 27.85523807h-2.54984127v-2.5498412c0-.8415768-.68223276-1.5238096-1.52380953-1.5238096-.84157676 0-1.52380952.6822328-1.52380952 1.5238096v8.1269841c0 .8415767.68223276 1.5238095 1.52380952 1.5238095.84157677 0 1.52380953-.6822328 1.52380953-1.5238095v-2.5498413h2.54984127c.84157676 0 1.52380952-.6822328 1.52380952-1.5238095 0-.8415768-.68223276-1.5238095-1.52380952-1.5238095zm14.14095233 3.0273016c.8415768 0 1.5238096-.6822328 1.5238096-1.5238095 0-.8415768-.6822328-1.5238095-1.5238096-1.5238095h-7.1111111c-.8415767 0-1.5238095.6822327-1.5238095 1.5238095 0 .8415767.6822328 1.5238095 1.5238095 1.5238095zm0 26.0266667h-7.1111111c-.8415767 0-1.5238095.6822327-1.5238095 1.5238095s.6822328 1.5238095 1.5238095 1.5238095h7.1111111c.8415768 0 1.5238096-.6822327 1.5238096-1.5238095s-.6822328-1.5238095-1.5238096-1.5238095zm-14.14095233 0h-2.54984127v-2.5498413c0-.8415768-.68223276-1.5238095-1.52380953-1.5238095-.84157676 0-1.52380952.6822327-1.52380952 1.5238095v4.0634921c0 .8359662.67768454 1.5136508 1.51365079 1.5136508h4.06349207c.84157676 0 1.52380952-.6822328 1.52380952-1.5238096 0-.8415767-.68223276-1.5238095-1.52380952-1.5238095zm-4.06349207-8.0152381c.83596625 0 1.5136508-.6776846 1.5136508-1.5136508v-6.9688889c0-.8415768-.68223276-1.5238095-1.52380953-1.5238095-.84157676 0-1.52380952.6822327-1.52380952 1.5238095v6.9688889c-.00282586.4058467.15854648.7955972.44743718 1.0806615.28889071.2850644.68075814.4412259 1.08653107.4329893zm29.328254-29.6634579c.4032024.0026719.7908203-.1556061 1.0768858-.4397645.2860656-.2841584.4469237-.670709.4469237-1.0739205v-7.5784127c0-.8415767-.6822328-1.5238095-1.5238095-1.5238095-.8415768 0-1.5238096.6822328-1.5238096 1.5238095v7.5784127c0 .4032115.1608582.7897621.4469237 1.0739205s.6736835.4424364 1.0768859.4397645zm4.063492 8.6247277h-2.5396825v-2.5498412c0-.8415768-.6822328-1.5238096-1.5238095-1.5238096-.8415768 0-1.5238096.6822328-1.5238096 1.5238096v2.5498412h-2.5396825c-.8415768 0-1.5238095.6822328-1.5238095 1.5238095 0 .8415768.6822327 1.5238096 1.5238095 1.5238096h2.5498413v2.5295238c0 .8415767.6822327 1.5238095 1.5238095 1.5238095s1.5238095-.6822328 1.5238095-1.5238095v-2.5498413h2.5396826c.8415767 0 1.5238095-.6822328 1.5238095-1.5238095 0-.8415768-.6822328-1.5238095-1.5238095-1.5238095zm0 29.0539683h-2.5396825v-2.5498413c0-.8415768-.6822328-1.5238095-1.5238095-1.5238095-.8415768 0-1.5238096.6822327-1.5238096 1.5238095v2.5498413h-2.5396825c-.8415768 0-1.5238095.6822327-1.5238095 1.5238095s.6822327 1.5238095 1.5238095 1.5238095h8.1269841c.8415768 0 1.5238096-.6822327 1.5238096-1.5238095s-.6822328-1.5238095-1.5238096-1.5238095zm-4.063492-8.015204c.4032024.002672.7908203-.155606 1.0768858-.4397644.2860656-.2841585.4469237-.670709.4469237-1.0739205v-6.9688889c0-.8415768-.6822328-1.5238095-1.5238095-1.5238095-.8415768 0-1.5238096.6822327-1.5238096 1.5238095v6.9688889c0 .4032115.1608582.789762.4469237 1.0739205.2860655.2841584.6736835.4424364 1.0768859.4397644z" fill="#06033a"/></g></svg>

<svg xmlns="http://www.w3.org/2000/svg" width="63" height="64" viewBox="0 0 63 64">
  <g fill="none" fill-rule="evenodd">
    <path fill="#06033A" d="M60.7593651,0.518095238 L56.695873,0.518095238 C55.8542963,0.518095238 55.1720635,1.200328 55.1720635,2.04190476 C55.1720635,2.88348152 55.8542963,3.56571429 56.695873,3.56571429 L59.2457143,3.56571429 L59.2457143,6.0952381 C59.2457143,6.93681486 59.927947,7.61904762 60.7695238,7.61904762 C61.6111006,7.61904762 62.2933333,6.93681486 62.2933333,6.0952381 L62.2933333,2.03174603 C62.2933333,1.62675573 62.1311104,1.23864138 61.8428362,0.95418545 C61.5545621,0.669729525 61.1643189,0.512659125 60.7593651,0.518095238 L60.7593651,0.518095238 Z"/>
    <path fill="#F22F46" d="M55.791746 46.7301587L51.9822222 40.1371429C51.708324 39.6668969 51.2057826 39.3769692 50.6615873 39.3752381L43.0425397 39.3752381C42.5014181 39.3785043 42.0026194 39.6685036 41.7320635 40.1371429L37.9225397 46.7301587C37.6478899 47.1973329 37.6478899 47.7766354 37.9225397 48.2438095L41.7320635 54.8469841C42.0026194 55.3156234 42.5014181 55.6056227 43.0425397 55.6088889L50.6615873 55.6088889C51.2057826 55.6071578 51.708324 55.3172301 51.9822222 54.8469841L55.791746 48.2438095C56.0560008 47.7738597 56.0560008 47.2001086 55.791746 46.7301587zM49.7777778 52.5206349L43.9161905 52.5206349 40.9904762 47.4412698 43.9161905 42.3619048 49.7777778 42.3619048 52.7136508 47.4412698 49.7777778 52.5206349zM46.8520635 26.2907937C51.7219877 26.2907937 55.6698413 22.3429401 55.6698413 17.4730159 55.6698413 12.6030917 51.7219877 8.6552381 46.8520635 8.6552381 41.9821393 8.6552381 38.0342857 12.6030917 38.0342857 17.4730159 38.0342857 22.3429401 41.9821393 26.2907937 46.8520635 26.2907937zM46.8520635 11.6825307C49.1950126 11.6784292 51.3095461 13.0866244 52.2090035 15.2500484 53.1084609 17.4134725 52.615563 19.9057239 50.9603004 21.5638956 49.3050379 23.2220672 46.8136558 23.7193405 44.6486557 22.8236833 42.4836556 21.9280261 41.071746 19.8159686 41.071746 17.4730159 41.0773162 14.2812965 43.6603588 11.6937142 46.8520635 11.6825307L46.8520635 11.6825307z"/>
    <path fill="#06033A" d="M60.7593651 12.1904762C59.9217583 12.1960604 59.2457143 12.8766603 59.2457143 13.7142857L59.2457143 21.2926984C59.2457143 22.1342752 59.927947 22.8165079 60.7695238 22.8165079 61.6111006 22.8165079 62.2933333 22.1342752 62.2933333 21.2926984L62.2933333 13.6838095C62.2879808 13.2823528 62.1233509 12.8994692 61.8356681 12.6194072 61.5479853 12.3393451 61.1608208 12.1850514 60.7593651 12.1904762zM60.7593651 27.3371429C59.9233988 27.3371429 59.2457143 28.0148274 59.2457143 28.8507937L59.2457143 31.4006349 56.695873 31.4006349C55.8542963 31.4006349 55.1720635 32.0828677 55.1720635 32.9244444 55.1720635 33.7660212 55.8542963 34.448254 56.695873 34.448254L59.2457143 34.448254 59.2457143 36.9777778C59.2457143 37.8193545 59.927947 38.5015873 60.7695238 38.5015873 61.6111006 38.5015873 62.2933698 37.8193545 62.2933698 36.9777778L62.2933698 28.8507937C62.2961592 28.444947 62.1347869 28.0551964 61.8458962 27.7701321 61.5570054 27.4850678 61.165138 27.3289062 60.7593651 27.3371429zM42.6666667 31.4006349C41.8250899 31.4006349 41.1428571 32.0828677 41.1428571 32.9244444 41.1428571 33.7660212 41.8250899 34.448254 42.6666667 34.448254L49.6761905 34.448254C50.5177672 34.448254 51.2 33.7660212 51.2 32.9244444 51.2 32.0828677 50.5177672 31.4006349 49.6761905 31.4006349L42.6666667 31.4006349zM60.7593651 42.4330159C59.9217583 42.4386 59.2457143 43.1192 59.2457143 43.9568254L59.2457143 50.9257143C59.2457143 51.767291 59.927947 52.4495238 60.7695238 52.4495238 61.6111006 52.4495238 62.2933333 51.767291 62.2933333 50.9257143L62.2933333 43.9568254C62.2961 43.5500767 62.1350439 43.1593314 61.8464686 42.8726672 61.5578932 42.5860029 61.1660864 42.4275466 60.7593651 42.4330159L60.7593651 42.4330159zM60.7593651 56.3911111C59.9233988 56.3911111 59.2457143 57.0687957 59.2457143 57.9047619L59.2457143 60.4546032 56.695873 60.4546032C55.8542963 60.4546032 55.1720635 61.1368359 55.1720635 61.9784127 55.1720635 62.8199895 55.8542963 63.5022222 56.695873 63.5022222L60.7593651 63.5022222C61.1643554 63.5022222 61.5524697 63.3399993 61.8369257 63.0517251 62.1213816 62.763451 62.278452 62.3732078 62.2730159 61.968254L62.2730159 57.9047619C62.2730159 57.0687957 61.5953313 56.3911111 60.7593651 56.3911111zM49.6761905 60.4546032L42.6666667 60.4546032C41.8250899 60.4546032 41.1428571 61.1368359 41.1428571 61.9784127 41.1428571 62.8199895 41.8250899 63.5022222 42.6666667 63.5022222L49.6761905 63.5022222C50.5177672 63.5022222 51.2 62.8199895 51.2 61.9784127 51.2 61.1368359 50.5177672 60.4546032 49.6761905 60.4546032z"/>
    <path fill="#F22F46" d="M25.4780952 19.3726984L20.327619 11.2457143C19.5825083 10.0690632 18.2866986 9.35598444 16.8939683 9.35619043L16.8939683 9.35619043C15.5012379 9.35598444 14.2054282 10.0690632 13.4603175 11.2457143L13.4603175 11.2457143 8.29968254 19.3726984C7.50703224 20.6244222 7.45847795 22.2083507 8.17297045 23.5062749 8.88746295 24.8041992 10.251744 25.6103779 11.7333333 25.6101588L22.0444444 25.6101588C23.5262463 25.6067952 24.8887371 24.7970864 25.6 23.4971429 26.3303415 22.2068357 26.2833695 20.6176179 25.4780952 19.3726984zM22.9485714 22.0444444C22.7681537 22.3742555 22.4203475 22.5774681 22.0444444 22.5727806L11.7333333 22.5727806C11.3574303 22.5774681 11.0096241 22.3742555 10.8292063 22.0444444 10.6477381 21.7301322 10.6477381 21.3428836 10.8292063 21.0285714L15.9796825 12.9015873C16.1638429 12.5979842 16.4931626 12.4125745 16.848254 12.4125745 17.2033454 12.4125745 17.5326651 12.5979842 17.7168254 12.9015873L22.8774603 21.0285714C23.0814338 21.3300073 23.1085605 21.7175312 22.9485714 22.0444444zM23.3650794 39.5073016L10.4634921 39.5073016C10.0620469 39.5073016 9.67704391 39.6667751 9.39317932 39.9506396 9.10931473 40.2345042 8.94984127 40.6195072 8.94984127 41.0209524L8.94984127 53.8412698C8.94984127 54.6772361 9.62752581 55.3549206 10.4634921 55.3549206L23.3650794 55.3549206C24.1811449 55.3275206 24.8283964 54.6577951 24.8279368 53.8412698L24.8279368 41.0209524C24.8283964 40.2044271 24.1811449 39.5347016 23.3650794 39.5073016L23.3650794 39.5073016zM21.8006349 52.3479365L11.9873016 52.3479365 11.9873016 42.5346032 21.8006349 42.5346032 21.8006349 52.3479365z"/>
    <path fill="#06033A" d="M2.2247619 7.60888889C3.06072815 7.60888889 3.7384127 6.93120435 3.7384127 6.0952381L3.7384127 3.54539683 6.28825397 3.54539683C7.12983073 3.54539683 7.81206349 2.86316406 7.81206349 2.0215873 7.81206349 1.18001054 7.12983073.497777772 6.28825397.497777772L2.2247619.497777772C1.8197716.497777772 1.43165725.660000743 1.14720132.948274868.862745398 1.23654899.705674998 1.62679222.711111111 2.03174603L.711111111 6.0952381C.711111111 6.49668325.870584576 6.88168625 1.15444916 7.16555084 1.43831375 7.44941542 1.82331675 7.60888889 2.2247619 7.60888889L2.2247619 7.60888889zM13.3587302 3.54539683L20.4698413 3.54539683C21.311418 3.54539683 21.9936508 2.86316406 21.9936508 2.0215873 21.9936508 1.18001054 21.311418.497777778 20.4698413.497777778L13.3587302.497777778C12.5171534.497777778 11.8349206 1.18001054 11.8349206 2.0215873 11.8349206 2.86316406 12.5171534 3.54539683 13.3587302 3.54539683L13.3587302 3.54539683zM2.2247619 22.775873C3.06072815 22.775873 3.7384127 22.0981885 3.7384127 21.2622222L3.7384127 13.6838095C3.7384127 12.8422328 3.05617994 12.16 2.21460317 12.16 1.37302641 12.16.690793651 12.8422328.690793651 13.6838095L.690793651 21.2622222C.687967789 21.6680689.849340128 22.0578194 1.13823083 22.3428838 1.42712154 22.6279481 1.81898897 22.7841097 2.2247619 22.775873L2.2247619 22.775873zM35.6165079.518095238L27.4895238.518095238C26.647947.518095238 25.9657143 1.200328 25.9657143 2.04190476 25.9657143 2.88348152 26.647947 3.56571429 27.4895238 3.56571429L30.0393651 3.56571429 30.0393651 6.0952381C30.0393651 6.93681486 30.7215978 7.61904762 31.5631746 7.61904762 32.4047514 7.61904762 33.0869841 6.93681486 33.0869841 6.0952381L33.0869841 3.54539683 35.6266667 3.54539683C36.4682434 3.54539683 37.1504762 2.86316406 37.1504762 2.0215873 37.1504762 1.18001054 36.4682434.497777778 35.6266667.497777778L35.6165079.518095238zM42.6666667 3.54539683L49.6761905 3.54539683C50.5177672 3.54539683 51.2 2.86316406 51.2 2.0215873 51.2 1.18001054 50.5177672.497777778 49.6761905.497777778L42.6666667.497777778C41.8250899.497777778 41.1428571 1.18001054 41.1428571 2.0215873 41.1428571 2.86316406 41.8250899 3.54539683 42.6666667 3.54539683zM6.28825397 31.4006349L3.7384127 31.4006349 3.7384127 28.8507937C3.7384127 28.0092169 3.05617994 27.3269841 2.21460317 27.3269841 1.37302641 27.3269841.690793651 28.0092169.690793651 28.8507937L.690793651 36.9777778C.690793651 37.8193545 1.37302641 38.5015873 2.21460317 38.5015873 3.05617994 38.5015873 3.7384127 37.8193545 3.7384127 36.9777778L3.7384127 34.4279365 6.28825397 34.4279365C7.12983073 34.4279365 7.81206349 33.7457037 7.81206349 32.904127 7.81206349 32.0625502 7.12983073 31.3803175 6.28825397 31.3803175L6.28825397 31.4006349zM20.4292063 34.4279365C21.2707831 34.4279365 21.9530159 33.7457037 21.9530159 32.904127 21.9530159 32.0625502 21.2707831 31.3803175 20.4292063 31.3803175L13.3180952 31.3803175C12.4765185 31.3803175 11.7942857 32.0625502 11.7942857 32.904127 11.7942857 33.7457037 12.4765185 34.4279365 13.3180952 34.4279365L20.4292063 34.4279365zM20.4292063 60.4546032L13.3180952 60.4546032C12.4765185 60.4546032 11.7942857 61.1368359 11.7942857 61.9784127 11.7942857 62.8199895 12.4765185 63.5022222 13.3180952 63.5022222L20.4292063 63.5022222C21.2707831 63.5022222 21.9530159 62.8199895 21.9530159 61.9784127 21.9530159 61.1368359 21.2707831 60.4546032 20.4292063 60.4546032zM6.28825397 60.4546032L3.7384127 60.4546032 3.7384127 57.9047619C3.7384127 57.0631851 3.05617994 56.3809524 2.21460317 56.3809524 1.37302641 56.3809524.690793651 57.0631851.690793651 57.9047619L.690793651 61.968254C.690793651 62.8042202 1.36847819 63.4819048 2.20444444 63.4819048L6.26793651 63.4819048C7.10951327 63.4819048 7.79174603 62.799672 7.79174603 61.9580952 7.79174603 61.1165185 7.10951327 60.4342857 6.26793651 60.4342857L6.28825397 60.4546032zM2.2247619 52.4393651C3.06072815 52.4393651 3.7384127 51.7616805 3.7384127 50.9257143L3.7384127 43.9568254C3.7384127 43.1152486 3.05617994 42.4330159 2.21460317 42.4330159 1.37302641 42.4330159.690793651 43.1152486.690793651 43.9568254L.690793651 50.9257143C.687967789 51.331561.849340128 51.7213115 1.13823083 52.0063758 1.42712154 52.2914402 1.81898897 52.4476017 2.2247619 52.4393651L2.2247619 52.4393651zM31.5530159 22.7759072C31.9562183 22.7785791 32.3438362 22.6203011 32.6299017 22.3361427 32.9159673 22.0519843 33.0768254 21.6654337 33.0768254 21.2622222L33.0768254 13.6838095C33.0768254 12.8422328 32.3945926 12.16 31.5530159 12.16 30.7114391 12.16 30.0292063 12.8422328 30.0292063 13.6838095L30.0292063 21.2622222C30.0292063 21.6654337 30.1900645 22.0519843 30.47613 22.3361427 30.7621955 22.6203011 31.1498135 22.7785791 31.5530159 22.7759072L31.5530159 22.7759072zM35.6165079 31.4006349L33.0768254 31.4006349 33.0768254 28.8507937C33.0768254 28.0092169 32.3945926 27.3269841 31.5530159 27.3269841 30.7114391 27.3269841 30.0292063 28.0092169 30.0292063 28.8507937L30.0292063 31.4006349 27.4895238 31.4006349C26.647947 31.4006349 25.9657143 32.0828677 25.9657143 32.9244444 25.9657143 33.7660212 26.647947 34.448254 27.4895238 34.448254L30.0393651 34.448254 30.0393651 36.9777778C30.0393651 37.8193545 30.7215978 38.5015873 31.5631746 38.5015873 32.4047514 38.5015873 33.0869841 37.8193545 33.0869841 36.9777778L33.0869841 34.4279365 35.6266667 34.4279365C36.4682434 34.4279365 37.1504762 33.7457037 37.1504762 32.904127 37.1504762 32.0625502 36.4682434 31.3803175 35.6266667 31.3803175L35.6165079 31.4006349zM35.6165079 60.4546032L33.0768254 60.4546032 33.0768254 57.9047619C33.0768254 57.0631851 32.3945926 56.3809524 31.5530159 56.3809524 30.7114391 56.3809524 30.0292063 57.0631851 30.0292063 57.9047619L30.0292063 60.4546032 27.4895238 60.4546032C26.647947 60.4546032 25.9657143 61.1368359 25.9657143 61.9784127 25.9657143 62.8199895 26.647947 63.5022222 27.4895238 63.5022222L35.6165079 63.5022222C36.4580847 63.5022222 37.1403175 62.8199895 37.1403175 61.9784127 37.1403175 61.1368359 36.4580847 60.4546032 35.6165079 60.4546032zM31.5530159 52.4393992C31.9562183 52.4420712 32.3438362 52.2837932 32.6299017 51.9996348 32.9159673 51.7154763 33.0768254 51.3289258 33.0768254 50.9257143L33.0768254 50.9257143 33.0768254 43.9568254 33.0768254 43.9568254C33.0768254 43.1152486 32.3945926 42.4330159 31.5530159 42.4330159 30.7114391 42.4330159 30.0292063 43.1152486 30.0292063 43.9568254L30.0292063 43.9568254 30.0292063 50.9257143 30.0292063 50.9257143C30.0292063 51.3289258 30.1900645 51.7154763 30.47613 51.9996348 30.7621955 52.2837932 31.1498135 52.4420712 31.5530159 52.4393992L31.5530159 52.4393992z"/>
  </g>
</svg>
